X: 1153
T: Rosbif
B: ralph
B: steve tunes
M:3/4
Q: 1/4=100
K:Aminor
V:1 
AB|:"Am"c2AB cA|"C"c2AB cA|"G"B2GA BG|"Am"A2A4| "Am"c2AB cA|"C"c2AB cA|"G"BA GA BG|"C"c2c4|
"C"c2cdec|"G"d2B4|"Am"c2AB cA|"G"BAG4|"Am"c2AB cA|"C"c2 AB cA|"G"BA GA BG|1 "Am"A2A2AB:|2 "Am"A2A4||
|:"Am"e2f2e2|"Am"c2c2c2|"Am"e2f2e2|"G"d2d2d2|"G"d2dB GB|"G"d2dB GB|"G"d4c2|"Am"A6:|
|:"Am"c3B c2|"G"d4d2|"C"e2g2f2|"C"e4 e2|"F"a3g f2|"C"e3d c2|1 "G"d4d2|"Am"e6:|2 "G"d4c2|"Am"A4||
% abcbook-tune_id 629eed41d90a4aa29bc6da3a


% abcbook-boost 0
% abcbook-tablature 
% abcbook-transpose 
% abcbook-lastupdated 1665484472508
% abcbook-soundfonts 
% abcbook-repeats 3


